public/7af475ea75433d86a859afea3ac6ce0371ee54407e2ed68158c7ba2fcead9603.cube
TITLE "Generated by 3D LUT Creator Pro (c) Oleg Sharonov"
LUT_3D_SIZE 9
#IMAGEPROFILE sRGB
#INPUTGAMMA sRGB
#OUTPUTGAMMA sRGB
0.054194 0.038940 0.041729
0.217827 0.069572 0.079626
0.366510 0.116021 0.135946
0.507840 0.165150 0.194704
0.633773 0.209650 0.246922
0.717114 0.226032 0.260518
0.790414 0.238834 0.271895
0.855961 0.248490 0.281097
0.915348 0.257189 0.289403
0.097780 0.142741 0.088220
0.200255 0.150163 0.082837
0.355975 0.181232 0.133509
0.492077 0.221510 0.189406
0.621952 0.262500 0.242309
0.709166 0.275218 0.256465
0.786186 0.286899 0.269424
0.854231 0.296259 0.279985
0.915469 0.305668 0.289804
0.161952 0.283280 0.175654
0.257283 0.290354 0.139406
0.356987 0.299267 0.142669
0.496569 0.308904 0.188130
0.623738 0.331673 0.239173
0.708904 0.335467 0.254068
0.784885 0.342680 0.269131
0.854272 0.348281 0.280217
0.916639 0.356076 0.290648
0.225547 0.417648 0.259244
0.320597 0.422159 0.209319
0.399465 0.430382 0.202895
0.490458 0.437540 0.207316
0.628701 0.429663 0.239737
0.719787 0.414251 0.250366
0.800434 0.406395 0.263094
0.864441 0.406595 0.278634
0.918687 0.413430 0.294168
0.285900 0.549236 0.338507
0.363683 0.554243 0.292766
0.454032 0.556267 0.260111
0.526659 0.563195 0.258578
0.615745 0.569329 0.264095
0.727058 0.532465 0.243914
0.814059 0.506223 0.264993
0.874539 0.495925 0.286938
0.923526 0.495259 0.305759
0.319590 0.656473 0.390135
0.385715 0.660207 0.356202
0.476409 0.660454 0.310985
0.555096 0.663381 0.280356
0.627415 0.670120 0.276332
0.710832 0.675362 0.284720
0.817694 0.648361 0.240130
0.882372 0.630186 0.305175
0.930417 0.620350 0.340294
0.351745 0.756547 0.436123
0.412740 0.758332 0.415927
0.477662 0.762931 0.367126
0.577300 0.759611 0.330713
0.652807 0.763703 0.297205
0.723016 0.770171 0.298280
0.798966 0.775012 0.308407
0.879123 0.761545 0.334119
0.940594 0.751672 0.357945
0.403531 0.839392 0.475037
0.463595 0.839045 0.467204
0.527566 0.840259 0.446677
0.597598 0.842116 0.417747
0.672473 0.846317 0.362874
0.743632 0.852325 0.325884
0.810122 0.857290 0.352476
0.873225 0.860059 0.405539
0.934988 0.857477 0.438727
0.460428 0.906940 0.505980
0.513155 0.906899 0.503185
0.570933 0.907600 0.494297
0.629460 0.910206 0.479147
0.699422 0.912856 0.455547
0.763532 0.919388 0.433179
0.826283 0.925146 0.441545
0.885209 0.929501 0.467204
0.940746 0.932941 0.494432
0.084850 0.049638 0.155520
0.192943 0.054468 0.177833
0.342626 0.105739 0.203578
0.482466 0.154094 0.249912
0.615745 0.200884 0.297599
0.705837 0.220132 0.308880
0.784597 0.235584 0.319540
0.853624 0.247085 0.328551
0.915308 0.257241 0.337615
0.086640 0.148057 0.177603
0.223806 0.169739 0.206913
0.373540 0.201022 0.238618
0.510087 0.238692 0.279191
0.635087 0.275936 0.319444
0.717744 0.284516 0.323879
0.791023 0.292622 0.329059
0.856564 0.299514 0.333942
0.916075 0.307408 0.340310
0.153426 0.286782 0.257216
0.282334 0.305904 0.261340
0.372885 0.315818 0.264736
0.506076 0.328444 0.292896
0.630374 0.349592 0.327113
0.715220 0.348439 0.328597
0.790370 0.350010 0.332174
0.857103 0.352756 0.336323
0.917242 0.358345 0.342453
0.211430 0.420993 0.338059
0.324350 0.436886 0.334573
0.411622 0.442917 0.321314
0.501532 0.450082 0.317654
0.635370 0.444062 0.336725
0.724711 0.426536 0.332901
0.799839 0.418690 0.335651
0.861497 0.416601 0.341842
0.918787 0.417410 0.347917
0.271220 0.551969 0.411576
0.371148 0.563130 0.405683
0.456027 0.567553 0.364639
0.535488 0.572568 0.359542
0.624456 0.577931 0.360715
0.732805 0.541397 0.338414
0.815206 0.515731 0.340924
0.871487 0.505064 0.352759
0.922078 0.500700 0.362123
0.309638 0.658082 0.455467
0.392582 0.665038 0.450388
0.466933 0.669773 0.403256
0.558595 0.670306 0.369088
0.633799 0.676018 0.364201
0.715899 0.680782 0.369751
0.818486 0.654716 0.328273
0.878552 0.637684 0.376588
0.929306 0.625615 0.396937
0.345582 0.757429 0.495251
0.415351 0.761169 0.490859
0.485074 0.764381 0.454139
0.575866 0.764381 0.405887
0.656140 0.767588 0.372307
0.726944 0.773284 0.373384
0.801006 0.777544 0.387503
0.876204 0.765127 0.410608
0.939223 0.755065 0.417154
0.399268 0.840216 0.528325
0.466056 0.840042 0.527068
0.533963 0.840259 0.510600
0.602165 0.842762 0.482592
0.677280 0.846509 0.440609
0.746426 0.852975 0.405513
0.811652 0.857207 0.437390
0.873066 0.860388 0.476767
0.934911 0.858470 0.492587
0.459048 0.907373 0.555908
0.512719 0.907620 0.555454
0.572157 0.908073 0.547274
0.631535 0.910921 0.530620
0.701894 0.913567 0.507461
0.765552 0.920007 0.486908
0.827396 0.925442 0.497109
0.885673 0.929657 0.520571
0.940822 0.933135 0.545013
0.117190 0.069353 0.270899
0.237876 0.059463 0.301778
0.337919 0.076483 0.330986
0.465373 0.140574 0.333777
0.598110 0.193396 0.366992
0.694541 0.215257 0.373493
0.778938 0.233095 0.380719
0.851610 0.246324 0.386444
0.915429 0.257808 0.392377
0.117061 0.169244 0.300222
0.270052 0.184538 0.332358
0.361035 0.196946 0.354653
0.490917 0.236757 0.363398
0.619967 0.275158 0.391038
0.708450 0.284059 0.390387
0.786627 0.293005 0.392248
0.855295 0.300623 0.393923
0.916679 0.309083 0.397112
0.132948 0.293426 0.345473
0.269310 0.313059 0.350998
0.384715 0.335803 0.373540
0.519353 0.346325 0.394735
0.642314 0.363741 0.415963
0.724002 0.359843 0.409382
0.795950 0.358345 0.405537
0.860326 0.358244 0.402953
0.917122 0.362417 0.403201
0.207383 0.424243 0.410824
0.326647 0.438451 0.411462
0.430676 0.455917 0.415061
0.504570 0.466148 0.424808
0.641254 0.459122 0.432628
0.725692 0.441509 0.422415
0.799945 0.431055 0.416158
0.863911 0.423874 0.411741
0.918827 0.422856 0.411024
0.262642 0.554176 0.483943
0.362204 0.565318 0.484188
0.463934 0.576792 0.476346
0.546206 0.580104 0.478162
0.630713 0.587308 0.462027
0.736145 0.551633 0.435729
0.808274 0.529966 0.431304
0.863829 0.517987 0.431267
0.917965 0.509157 0.429936
0.292634 0.660811 0.525290
0.379116 0.667387 0.523458
0.472553 0.674204 0.512747
0.559184 0.677613 0.467289
0.639152 0.681763 0.460174
0.720135 0.686066 0.463573
0.811982 0.662917 0.441932
0.871067 0.646645 0.462126
0.926505 0.632355 0.462686
0.333524 0.759233 0.560267
0.404831 0.762743 0.558076
0.491502 0.765639 0.549072
0.571363 0.768651 0.506943
0.657373 0.771570 0.462949
0.730359 0.775963 0.465372
0.800412 0.779521 0.494297
0.871247 0.769228 0.498180
0.936813 0.758925 0.486413
0.389157 0.842181 0.587318
0.457676 0.841815 0.586415
0.537790 0.840973 0.582142
0.606698 0.843128 0.559709
0.682701 0.846274 0.528206
0.749351 0.852325 0.510646
0.812847 0.856751 0.532599
0.872507 0.860696 0.556485
0.935103 0.859708 0.549598
0.455323 0.908505 0.609413
0.509009 0.908833 0.609562
0.569540 0.909776 0.607686
0.633418 0.911452 0.593335
0.702878 0.914701 0.570178
0.767215 0.920845 0.549373
0.828605 0.926289 0.555428
0.886350 0.930378 0.574801
0.941277 0.933695 0.596781
0.152563 0.091966 0.380994
0.273168 0.080010 0.408782
0.378671 0.073210 0.450123
0.468576 0.101465 0.470981
0.589268 0.179448 0.463032
0.686346 0.209119 0.457524
0.773807 0.232219 0.459440
0.850262 0.247085 0.462365
0.916034 0.259959 0.464790
0.154189 0.192229 0.417363
0.301464 0.207825 0.444485
0.402334 0.207825 0.472949
0.487225 0.224699 0.490599
0.609501 0.272440 0.487511
0.701210 0.283658 0.476359
0.782668 0.295397 0.472685
0.854711 0.303343 0.471626
0.917724 0.312443 0.471323
0.154094 0.314757 0.453159
0.295397 0.331959 0.465606
0.425449 0.344564 0.492604
0.506510 0.354806 0.508635
0.628596 0.373680 0.511532
0.717534 0.368145 0.497156
0.793710 0.366558 0.488402
0.860511 0.365784 0.482794
0.919168 0.368910 0.479357
0.182761 0.430517 0.495600
0.307509 0.445329 0.499318
0.423747 0.461381 0.496362
0.521260 0.480641 0.515307
0.644848 0.474603 0.533639
0.732626 0.453119 0.516791
0.804489 0.440308 0.504570
0.865316 0.432437 0.495254
0.918567 0.429978 0.488935
0.256258 0.557390 0.553903
0.362765 0.567267 0.554016
0.467839 0.577346 0.550409
0.561056 0.590833 0.551157
0.621283 0.602028 0.561445
0.732469 0.565318 0.534580
0.800604 0.544725 0.524536
0.859440 0.529675 0.515048
0.916337 0.517224 0.506876
0.282296 0.662808 0.596948
0.370179 0.669318 0.597273
0.461862 0.676437 0.592895
0.563276 0.683306 0.577989
0.645622 0.686117 0.572924
0.719648 0.692048 0.572333
0.801388 0.672645 0.553589
0.864319 0.656195 0.547371
0.924811 0.639567 0.537565
0.316383 0.761781 0.629528
0.388157 0.765477 0.629780
0.474709 0.768721 0.623744
0.581882 0.769044 0.610716
0.662119 0.772850 0.578993
0.733498 0.777093 0.581227
0.799264 0.781867 0.597023
0.870345 0.773124 0.576212
0.936948 0.762532 0.558567
0.368475 0.845826 0.652956
0.441393 0.845143 0.651470
0.527940 0.843515 0.646058
0.609800 0.844351 0.639968
0.683084 0.848019 0.614357
0.751551 0.853394 0.596422
0.814715 0.857891 0.609197
0.873604 0.862215 0.622068
0.936391 0.861333 0.609197
0.447674 0.910697 0.667186
0.501647 0.911064 0.667746
0.563096 0.911859 0.666377
0.628956 0.914033 0.662975
0.699358 0.917282 0.640546
0.768380 0.922039 0.617678
0.829929 0.927565 0.615333
0.887295 0.931468 0.632353
0.942036 0.934679 0.651556
0.189780 0.118729 0.493753
0.302510 0.111076 0.516880
0.409021 0.097467 0.554376
0.507441 0.093126 0.591921
0.598685 0.131704 0.609084
0.684331 0.196790 0.562678
0.775759 0.225304 0.554343
0.851042 0.247356 0.551027
0.916820 0.263445 0.548965
0.191930 0.217912 0.531490
0.328920 0.234114 0.555141
0.434274 0.227585 0.579890
0.525849 0.230884 0.608333
0.612679 0.253738 0.622860
0.698518 0.279777 0.581291
0.784929 0.293060 0.568886
0.856543 0.305616 0.561900
0.918487 0.317702 0.556763
0.190450 0.334624 0.563421
0.323359 0.350270 0.577869
0.452126 0.359445 0.600347
0.544332 0.360787 0.622085
0.625410 0.375495 0.633799
0.712726 0.375403 0.600661
0.795456 0.372838 0.585605
0.863380 0.373166 0.574874
0.918947 0.379219 0.566086
0.194921 0.448425 0.600061
0.319877 0.463032 0.603927
0.440011 0.476061 0.607859
0.558230 0.485720 0.628019
0.634752 0.494802 0.638846
0.723658 0.473213 0.617185
0.803289 0.456158 0.601374
0.863809 0.449627 0.587725
0.917021 0.446965 0.576854
0.229804 0.563163 0.636088
0.342278 0.573349 0.637112
0.447754 0.584074 0.635370
0.558230 0.595045 0.616751
0.630661 0.614434 0.622166
0.726649 0.579493 0.629225
0.799073 0.556168 0.614708
0.858801 0.539156 0.601972
0.916075 0.524602 0.590921
0.270348 0.665958 0.668540
0.364956 0.671743 0.667931
0.462785 0.677535 0.663806
0.568571 0.682638 0.653564
0.658409 0.691722 0.651583
0.716531 0.700771 0.659586
0.800434 0.680704 0.638082
0.864054 0.663816 0.629277
0.923665 0.647103 0.619725
0.302534 0.764077 0.702899
0.379566 0.767172 0.702835
0.476158 0.768836 0.696284
0.574666 0.771066 0.685014
0.668703 0.775238 0.673167
0.737628 0.779857 0.671267
0.801494 0.785415 0.674044
0.872806 0.776686 0.650502
0.936046 0.766499 0.641835
0.367126 0.846573 0.719530
0.438700 0.846232 0.717785
0.519024 0.846125 0.712940
0.599814 0.847530 0.707023
0.679898 0.851316 0.698602
0.752721 0.855898 0.673721
0.816411 0.860326 0.676387
0.875273 0.864257 0.686288
0.938058 0.863115 0.673351
0.436493 0.913871 0.729887
0.491737 0.914094 0.730187
0.551270 0.915429 0.729707
0.618881 0.917323 0.726598
0.694498 0.919927 0.719674
0.768299 0.923665 0.693185
0.831249 0.929267 0.679285
0.888315 0.932864 0.693404
0.943019 0.935969 0.709257
0.183927 0.125402 0.570725
0.287068 0.123344 0.587568
0.402912 0.106314 0.619034
0.506176 0.089429 0.661222
0.610914 0.082092 0.704124
0.702354 0.141206 0.715478
0.778803 0.216026 0.667521
0.861641 0.238834 0.656529
0.924535 0.261633 0.649813
0.185928 0.211326 0.614831
0.314720 0.229635 0.627207
0.425261 0.221675 0.647961
0.525880 0.215262 0.680627
0.624243 0.219764 0.714938
0.710784 0.252517 0.723498
0.787154 0.289809 0.680161
0.866249 0.301201 0.666471
0.924080 0.319829 0.656973
0.187828 0.326221 0.645178
0.311995 0.341705 0.661250
0.439618 0.353116 0.674546
0.544714 0.346961 0.696226
0.636805 0.352189 0.722280
0.717837 0.371803 0.728735
0.796401 0.378808 0.693671
0.867464 0.380265 0.676986
0.921243 0.389255 0.664115
0.178729 0.442107 0.676725
0.306437 0.455271 0.684459
0.429008 0.467307 0.692498
0.554869 0.474566 0.704003
0.646817 0.476061 0.723887
0.721543 0.488615 0.728983
0.800519 0.474191 0.703446
0.862583 0.466883 0.684254
0.918947 0.462483 0.672671
0.189556 0.558934 0.716437
0.311345 0.569329 0.717021
0.425412 0.579646 0.714844
0.539152 0.589682 0.707086
0.647662 0.598283 0.709095
0.713786 0.607663 0.713362
0.790718 0.582686 0.704462
0.855503 0.562839 0.692123
0.917805 0.544621 0.683229
0.246596 0.670360 0.746858
0.347789 0.676096 0.744500
0.450206 0.681789 0.738422
0.558792 0.687185 0.724711
0.661094 0.694640 0.701965
0.712253 0.698592 0.705837
0.791523 0.679201 0.705138
0.861292 0.661140 0.698641
0.922654 0.644804 0.691221
0.292018 0.766754 0.773292
0.386993 0.767820 0.767747
0.489344 0.768282 0.756947
0.585394 0.770332 0.746254
0.673997 0.774944 0.738752
0.739764 0.775850 0.734857
0.797258 0.783978 0.738444
0.872047 0.774512 0.719973
0.934641 0.765220 0.714797
0.388330 0.844544 0.780868
0.456673 0.844501 0.778265
0.533518 0.844651 0.772808
0.607840 0.846999 0.768605
0.674688 0.853540 0.766333
0.744435 0.855357 0.752530
0.813689 0.860388 0.737363
0.874698 0.864054 0.746728
0.940099 0.862767 0.733565
0.450014 0.912653 0.787956
0.504392 0.912958 0.788015
0.562300 0.914519 0.787606
0.621040 0.918066 0.787489
0.684095 0.923526 0.785711
0.757556 0.924771 0.773978
0.829159 0.929423 0.748257
0.888430 0.933695 0.751082
0.943737 0.936986 0.765347
0.187979 0.136820 0.653311
0.279894 0.136929 0.665087
0.388862 0.129987 0.689201
0.503359 0.105739 0.727065
0.612817 0.077082 0.775691
0.718999 0.078852 0.819134
0.803858 0.156826 0.819297
0.867363 0.231221 0.773580
0.928583 0.262742 0.756881
0.189631 0.211415 0.693168
0.304792 0.228929 0.700393
0.411502 0.224699 0.717459
0.523249 0.209900 0.747807
0.627861 0.201117 0.788908
0.726080 0.211504 0.823406
0.807711 0.254749 0.822885
0.870606 0.298772 0.780126
0.926623 0.324539 0.760627
0.192957 0.320244 0.727376
0.303550 0.334455 0.745355
0.428747 0.348491 0.749465
0.539808 0.339684 0.767264
0.641709 0.335971 0.798284
0.731707 0.345313 0.823447
0.806835 0.371756 0.820166
0.868191 0.388599 0.781555
0.922833 0.399591 0.763352
0.184699 0.435442 0.756881
0.300675 0.447634 0.766267
0.419923 0.459281 0.776370
0.544274 0.468000 0.780126
0.650428 0.463345 0.798668
0.725784 0.476694 0.805370
0.793926 0.493792 0.802340
0.861005 0.484423 0.781065
0.920087 0.478139 0.767334
0.177280 0.553709 0.794810
0.293551 0.564033 0.795563
0.408497 0.575029 0.792716
0.530554 0.583471 0.782891
0.646867 0.590921 0.778152
0.722326 0.597130 0.786934
0.785657 0.608277 0.787922
0.857062 0.584645 0.781756
0.921323 0.564323 0.774717
0.200675 0.669318 0.826780
0.308627 0.675099 0.824627
0.429231 0.680239 0.812703
0.542064 0.685786 0.794961
0.642213 0.693770 0.783046
0.721221 0.690644 0.777476
0.785304 0.698666 0.783224
0.860552 0.679694 0.783911
0.926052 0.662399 0.778713
0.315425 0.766453 0.834267
0.405989 0.767519 0.826482
0.498589 0.769067 0.815696
0.588665 0.772097 0.804489
0.668820 0.778579 0.799796
0.736145 0.779588 0.791545
0.794767 0.783978 0.790217
0.868978 0.773602 0.789236
0.932651 0.764521 0.786890
0.405103 0.844094 0.837108
0.469931 0.844415 0.833779
0.542904 0.845036 0.827733
0.614833 0.847594 0.823366
0.682701 0.853289 0.823106
0.745194 0.856127 0.819742
0.811342 0.859605 0.809603
0.873982 0.863829 0.813011
0.941657 0.862481 0.799796
0.461166 0.912592 0.843058
0.514607 0.913080 0.842676
0.571616 0.914600 0.842063
0.630236 0.917885 0.842561
0.693667 0.922733 0.842714
0.751956 0.927349 0.839988
0.821719 0.930301 0.829238
0.888027 0.934756 0.812744
0.944529 0.938173 0.823707
0.198779 0.150428 0.737545
0.279191 0.151208 0.745663
0.381668 0.148853 0.764318
0.493513 0.134512 0.794206
0.608611 0.104286 0.840800
0.725966 0.055820 0.894308
0.806731 0.149051 0.904589
0.878060 0.208920 0.896388
0.935815 0.256413 0.867626
0.200185 0.216636 0.770493
0.299408 0.231582 0.773967
0.402003 0.229792 0.788372
0.511827 0.218925 0.813442
0.624376 0.200063 0.854940
0.732805 0.189335 0.897744
0.804426 0.252381 0.897518
0.873604 0.294205 0.890329
0.933173 0.322220 0.866716
0.203239 0.316872 0.808480
0.299143 0.329719 0.823983
0.419846 0.345046 0.822353
0.527715 0.339024 0.836670
0.640850 0.326985 0.867363
0.729660 0.341215 0.883598
0.798476 0.374194 0.883696
0.864970 0.398921 0.878552
0.928661 0.404228 0.863646
0.200325 0.429528 0.837609
0.298293 0.440995 0.845890
0.413407 0.452792 0.852891
0.533487 0.463776 0.847296
0.646021 0.458045 0.858429
0.725556 0.470563 0.865681
0.791697 0.489821 0.867323
0.855065 0.505842 0.864257
0.924614 0.491128 0.860737
0.178649 0.549507 0.868232
0.281988 0.559425 0.869662
0.406148 0.568538 0.864522
0.525381 0.578115 0.849459
0.641330 0.585155 0.849501
0.729908 0.586682 0.859255
0.795477 0.597621 0.863544
0.856958 0.607914 0.862624
0.927388 0.582897 0.863768
0.195138 0.666093 0.897706
0.314227 0.670892 0.888584
0.431488 0.676044 0.873823
0.534641 0.682792 0.860881
0.631701 0.690845 0.857477
0.723796 0.684331 0.855357
0.800667 0.688148 0.863605
0.861456 0.696548 0.864033
0.929774 0.679045 0.862808
0.322601 0.764871 0.894725
0.401880 0.766801 0.888084
0.490215 0.768997 0.877686
0.574666 0.773056 0.869320
0.650945 0.780350 0.869098
0.720620 0.781288 0.864787
0.800858 0.779969 0.859832
0.865580 0.784929 0.864522
0.934313 0.775238 0.865661
0.419806 0.844158 0.890290
0.481610 0.844736 0.886697
0.551170 0.845720 0.880457
0.619116 0.848845 0.876857
0.685238 0.854606 0.877193
0.747160 0.857601 0.874995
0.812847 0.860614 0.870906
0.873026 0.864828 0.869782
0.940973 0.862522 0.870766
0.471094 0.913161 0.895293
0.523433 0.913607 0.894573
0.579412 0.915186 0.893777
0.637178 0.918406 0.894232
0.699573 0.923150 0.894649
0.759042 0.927192 0.894422
0.820429 0.931739 0.893284
0.884278 0.935584 0.886234
0.945131 0.939108 0.884492
0.209186 0.161952 0.814800
0.281118 0.162758 0.820374
0.377066 0.162311 0.835173
0.484207 0.154853 0.859824
0.604999 0.124438 0.900202
0.720297 0.095080 0.951644
0.798241 0.177684 0.955076
0.865844 0.233153 0.951644
0.928016 0.267810 0.945619
0.210509 0.222990 0.840773
0.296689 0.234722 0.842196
0.394820 0.234190 0.854753
0.500751 0.227664 0.876176
0.620478 0.203484 0.913648
0.723016 0.207916 0.947625
0.797750 0.263142 0.950197
0.863870 0.306437 0.946989
0.925146 0.335427 0.941467
0.212932 0.314443 0.881781
0.296796 0.326221 0.893134
0.412417 0.341433 0.890671
0.518010 0.337142 0.902753
0.636754 0.322778 0.926407
0.723268 0.342193 0.937139
0.795628 0.373587 0.940289
0.860059 0.401423 0.938326
0.921144 0.420808 0.935065
0.212672 0.425026 0.910778
0.297760 0.435222 0.916598
0.410185 0.448175 0.913871
0.524787 0.459519 0.911859
0.637751 0.454542 0.920386
0.726671 0.462561 0.929833
0.797835 0.480348 0.934467
0.860614 0.497775 0.934313
0.920765 0.511434 0.932186
0.197004 0.544207 0.935930
0.292622 0.553008 0.933734
0.411741 0.562484 0.922872
0.519066 0.572443 0.918907
0.635292 0.579096 0.920426
0.735391 0.576607 0.930456
0.806375 0.586024 0.935853
0.866979 0.597707 0.936315
0.925797 0.607356 0.934467
0.252754 0.660014 0.947138
0.336903 0.665606 0.941505
0.432592 0.672141 0.932825
0.520721 0.680394 0.930748
0.623659 0.687337 0.927878
0.721036 0.680394 0.926465
0.809977 0.680135 0.935623
0.871928 0.688527 0.937943
0.930476 0.696301 0.936430
0.341960 0.761734 0.947886
0.409670 0.764521 0.944001
0.485287 0.768097 0.938326
0.556116 0.773944 0.938402
0.636447 0.780730 0.937752
0.710784 0.781265 0.935103
0.802192 0.777273 0.932534
0.877646 0.778646 0.938879
0.935623 0.784973 0.938479
0.423009 0.844565 0.945619
0.479719 0.845634 0.943548
0.541242 0.847785 0.941125
0.602682 0.851884 0.941353
0.669684 0.857559 0.941505
0.733073 0.860696 0.941277
0.800476 0.863870 0.939985
0.875709 0.864033 0.937178
0.940289 0.866594 0.940289
0.479077 0.913648 0.945319
0.530667 0.914175 0.944491
0.585850 0.915732 0.943624
0.642915 0.918947 0.944114
0.704541 0.923665 0.944566
0.763945 0.927682 0.944905
0.825007 0.932224 0.945018
0.886021 0.936315 0.944378
0.945657 0.940061 0.943699
