public/7af475ea75433d86a859afea3ac6ce0371ee54407e2ed68158c7ba2fcead9603.cube
TITLE "Generated by 3D LUT Creator Pro (c) Oleg Sharonov"
LUT_3D_SIZE 5
#IMAGEPROFILE sRGB
#INPUTGAMMA sRGB
#OUTPUTGAMMA sRGB
0.054194 0.038940 0.041729
0.366510 0.116021 0.135946
0.633773 0.209650 0.246922
0.790414 0.238834 0.271895
0.915348 0.257189 0.289403
0.161952 0.283280 0.175654
0.356987 0.299267 0.142669
0.623738 0.331673 0.239173
0.784885 0.342680 0.269131
0.916639 0.356076 0.290648
0.285900 0.549236 0.338507
0.454032 0.556267 0.260111
0.615745 0.569329 0.264095
0.814059 0.506223 0.264993
0.923526 0.495259 0.305759
0.351745 0.756547 0.436123
0.477662 0.762931 0.367126
0.652807 0.763703 0.297205
0.798966 0.775012 0.308407
0.940594 0.751672 0.357945
0.460428 0.906940 0.505980
0.570933 0.907600 0.494297
0.699422 0.912856 0.455547
0.826283 0.925146 0.441545
0.940746 0.932941 0.494432
0.117190 0.069353 0.270899
0.337919 0.076483 0.330986
0.598110 0.193396 0.366992
0.778938 0.233095 0.380719
0.915429 0.257808 0.392377
0.132948 0.293426 0.345473
0.384715 0.335803 0.373540
0.642314 0.363741 0.415963
0.795950 0.358345 0.405537
0.917122 0.362417 0.403201
0.262642 0.554176 0.483943
0.463934 0.576792 0.476346
0.630713 0.587308 0.462027
0.808274 0.529966 0.431304
0.917965 0.509157 0.429936
0.333524 0.759233 0.560267
0.491502 0.765639 0.549072
0.657373 0.771570 0.462949
0.800412 0.779521 0.494297
0.936813 0.758925 0.486413
0.455323 0.908505 0.609413
0.569540 0.909776 0.607686
0.702878 0.914701 0.570178
0.828605 0.926289 0.555428
0.941277 0.933695 0.596781
0.189780 0.118729 0.493753
0.409021 0.097467 0.554376
0.598685 0.131704 0.609084
0.775759 0.225304 0.554343
0.916820 0.263445 0.548965
0.190450 0.334624 0.563421
0.452126 0.359445 0.600347
0.625410 0.375495 0.633799
0.795456 0.372838 0.585605
0.918947 0.379219 0.566086
0.229804 0.563163 0.636088
0.447754 0.584074 0.635370
0.630661 0.614434 0.622166
0.799073 0.556168 0.614708
0.916075 0.524602 0.590921
0.302534 0.764077 0.702899
0.476158 0.768836 0.696284
0.668703 0.775238 0.673167
0.801494 0.785415 0.674044
0.936046 0.766499 0.641835
0.436493 0.913871 0.729887
0.551270 0.915429 0.729707
0.694498 0.919927 0.719674
0.831249 0.929267 0.679285
0.943019 0.935969 0.709257
0.187979 0.136820 0.653311
0.388862 0.129987 0.689201
0.612817 0.077082 0.775691
0.803858 0.156826 0.819297
0.928583 0.262742 0.756881
0.192957 0.320244 0.727376
0.428747 0.348491 0.749465
0.641709 0.335971 0.798284
0.806835 0.371756 0.820166
0.922833 0.399591 0.763352
0.177280 0.553709 0.794810
0.408497 0.575029 0.792716
0.646867 0.590921 0.778152
0.785657 0.608277 0.787922
0.921323 0.564323 0.774717
0.315425 0.766453 0.834267
0.498589 0.769067 0.815696
0.668820 0.778579 0.799796
0.794767 0.783978 0.790217
0.932651 0.764521 0.786890
0.461166 0.912592 0.843058
0.571616 0.914600 0.842063
0.693667 0.922733 0.842714
0.821719 0.930301 0.829238
0.944529 0.938173 0.823707
0.209186 0.161952 0.814800
0.377066 0.162311 0.835173
0.604999 0.124438 0.900202
0.798241 0.177684 0.955076
0.928016 0.267810 0.945619
0.212932 0.314443 0.881781
0.412417 0.341433 0.890671
0.636754 0.322778 0.926407
0.795628 0.373587 0.940289
0.921144 0.420808 0.935065
0.197004 0.544207 0.935930
0.411741 0.562484 0.922872
0.635292 0.579096 0.920426
0.806375 0.586024 0.935853
0.925797 0.607356 0.934467
0.341960 0.761734 0.947886
0.485287 0.768097 0.938326
0.636447 0.780730 0.937752
0.802192 0.777273 0.932534
0.935623 0.784973 0.938479
0.479077 0.913648 0.945319
0.585850 0.915732 0.943624
0.704541 0.923665 0.944566
0.825007 0.932224 0.945018
0.945657 0.940061 0.943699
