public/7af475ea75433d86a859afea3ac6ce0371ee54407e2ed68158c7ba2fcead9603.cube
TITLE "Generated by 3D LUT Creator Pro (c) Oleg Sharonov"
LUT_3D_SIZE 33
#IMAGEPROFILE sRGB
#INPUTGAMMA sRGB
#OUTPUTGAMMA sRGB
0.054194 0.038940 0.041729
0.090337 0.043402 0.047531
0.133448 0.049638 0.055552
0.176199 0.058185 0.066665
0.217827 0.069572 0.079626
0.257588 0.081341 0.093619
0.295214 0.092796 0.107738
0.331238 0.104432 0.121744
0.366510 0.116021 0.135946
0.401479 0.127776 0.150134
0.436325 0.139832 0.164622
0.472548 0.152659 0.179926
0.507840 0.165150 0.194704
0.541660 0.177280 0.209053
0.574188 0.188957 0.222613
0.604822 0.199765 0.235296
0.633773 0.209650 0.246922
0.655571 0.214034 0.250366
0.676753 0.218248 0.253911
0.697291 0.222243 0.257344
0.717114 0.226032 0.260518
0.736403 0.229626 0.263595
0.754941 0.232920 0.266529
0.772988 0.235986 0.269327
0.790414 0.238834 0.271895
0.807288 0.241474 0.274292
0.823844 0.243969 0.276662
0.840072 0.246324 0.278960
0.855961 0.248490 0.281097
0.871501 0.250526 0.283076
0.886946 0.252490 0.285038
0.901347 0.254749 0.287163
0.915348 0.257189 0.289403
0.062434 0.060619 0.048140
0.085085 0.061807 0.049043
0.126858 0.067157 0.055820
0.170248 0.074551 0.066207
0.211857 0.084456 0.078657
0.251966 0.095081 0.092133
0.290128 0.106309 0.106314
0.326432 0.117614 0.120121
0.361973 0.129194 0.134289
0.396857 0.140587 0.148357
0.431561 0.152237 0.162669
0.467408 0.164534 0.177603
0.502853 0.177025 0.192591
0.537037 0.189074 0.206980
0.569839 0.200682 0.220569
0.600942 0.211499 0.233444
0.630374 0.221658 0.245287
0.652371 0.225779 0.248867
0.673858 0.229934 0.252490
0.694683 0.233871 0.255895
0.714868 0.237604 0.259244
0.734362 0.241085 0.262491
0.753298 0.244445 0.265589
0.771548 0.247573 0.268447
0.789214 0.250426 0.271171
0.806297 0.253126 0.273719
0.823057 0.255678 0.276143
0.839357 0.258035 0.278447
0.855440 0.260257 0.280727
0.871171 0.262295 0.282893
0.886599 0.264312 0.284856
0.901347 0.266571 0.287073
0.915267 0.269167 0.289448
0.072791 0.084715 0.057667
0.093593 0.086184 0.057926
0.121374 0.087147 0.058699
0.164803 0.093103 0.066665
0.207095 0.101820 0.078852
0.247429 0.111447 0.091799
0.286122 0.122155 0.105450
0.322749 0.133031 0.119364
0.358294 0.143871 0.133397
0.393001 0.154885 0.147260
0.427691 0.166211 0.161502
0.462916 0.178034 0.175980
0.498531 0.190299 0.190969
0.532976 0.202078 0.205357
0.565961 0.213381 0.219004
0.597404 0.224215 0.231985
0.627099 0.234259 0.243969
0.649549 0.238300 0.247626
0.671213 0.242188 0.251219
0.692297 0.245931 0.254644
0.712796 0.249661 0.258219
0.732611 0.253138 0.261481
0.751670 0.256378 0.264644
0.770171 0.259391 0.267613
0.788098 0.262301 0.270494
0.805434 0.264945 0.273145
0.822375 0.267498 0.275717
0.838872 0.269856 0.278119
0.854982 0.272132 0.280403
0.870820 0.274276 0.282617
0.886517 0.276293 0.284765
0.901347 0.278603 0.287028
0.915308 0.281249 0.289537
0.085750 0.111707 0.070010
0.105657 0.113301 0.070661
0.129921 0.114865 0.074659
0.159942 0.116966 0.069133
0.204232 0.123322 0.079433
0.245150 0.131508 0.092133
0.283596 0.141220 0.106027
0.320198 0.150991 0.119743
0.355721 0.161266 0.133397
0.390409 0.171680 0.147059
0.424758 0.182181 0.160960
0.459410 0.193288 0.175080
0.494837 0.204761 0.189705
0.529437 0.216344 0.204130
0.562693 0.227555 0.217869
0.594417 0.238175 0.230986
0.624376 0.247905 0.242975
0.646962 0.251523 0.246596
0.668798 0.255068 0.250099
0.690163 0.258730 0.253701
0.710832 0.262140 0.257292
0.730921 0.265429 0.260620
0.750308 0.268661 0.263895
0.768966 0.271611 0.266973
0.787088 0.274402 0.269862
0.804569 0.276987 0.272617
0.821628 0.279484 0.275243
0.838303 0.281894 0.277791
0.854565 0.284115 0.280171
0.870593 0.286258 0.282526
0.886292 0.288326 0.284674
0.901388 0.290635 0.287028
0.915388 0.293433 0.289715
0.097780 0.142741 0.088220
0.121573 0.143861 0.083941
0.142224 0.145593 0.091129
0.169580 0.148209 0.085750
0.200255 0.150163 0.082837
0.245073 0.155802 0.093290
0.284507 0.163391 0.105883
0.321222 0.171938 0.119491
0.355975 0.181232 0.133509
0.389309 0.190894 0.147660
0.423090 0.200639 0.161412
0.457008 0.210704 0.174998
0.492077 0.221510 0.189406
0.526664 0.232353 0.203651
0.559872 0.242854 0.217172
0.591685 0.252925 0.230159
0.621952 0.262500 0.242309
0.644665 0.265559 0.245724
0.666743 0.268753 0.249296
0.688286 0.272074 0.252965
0.709166 0.275218 0.256465
0.729432 0.278368 0.259908
0.749032 0.281409 0.263244
0.767915 0.284173 0.266381
0.786186 0.286899 0.269424
0.803832 0.289364 0.272232
0.821051 0.291799 0.274910
0.837880 0.294150 0.277556
0.854231 0.296259 0.279985
0.870345 0.298453 0.282388
0.886272 0.300517 0.284674
0.901469 0.302874 0.287028
0.915469 0.305668 0.289804
0.112030 0.176436 0.108161
0.136434 0.177337 0.102514
0.159586 0.179748 0.094919
0.181575 0.182352 0.100709
0.210526 0.184416 0.096836
0.241275 0.186089 0.096520
0.284636 0.190852 0.107029
0.323199 0.196955 0.120121
0.358745 0.204002 0.133397
0.392367 0.211841 0.146657
0.425173 0.220425 0.160597
0.457391 0.229956 0.174834
0.490352 0.240331 0.189854
0.524617 0.250270 0.203719
0.557875 0.259980 0.217109
0.589727 0.269422 0.229922
0.620021 0.278442 0.242031
0.642796 0.280876 0.245341
0.665080 0.283583 0.248813
0.686717 0.286312 0.252384
0.707685 0.289060 0.255843
0.728195 0.291886 0.259346
0.747981 0.294613 0.262742
0.767041 0.297359 0.266035
0.785459 0.299786 0.269034
0.803354 0.302239 0.271944
0.820601 0.304388 0.274673
0.837500 0.306622 0.277321
0.854042 0.308725 0.279892
0.870221 0.310753 0.282296
0.886231 0.312813 0.284629
0.901611 0.315166 0.287073
0.915691 0.318107 0.289937
0.127658 0.211612 0.129987
0.152237 0.212666 0.122362
0.176601 0.214747 0.110390
0.199274 0.217301 0.109142
0.221675 0.220103 0.115235
0.251157 0.222069 0.111894
0.281693 0.223813 0.110802
0.323199 0.227140 0.121123
0.360638 0.231666 0.134955
0.394757 0.237625 0.147560
0.427937 0.244015 0.160416
0.460999 0.251017 0.173596
0.493408 0.259530 0.187828
0.525951 0.268753 0.202481
0.557298 0.278499 0.217045
0.588443 0.287595 0.230455
0.618701 0.295763 0.242309
0.641570 0.297463 0.245451
0.663790 0.299447 0.248705
0.685586 0.301646 0.252120
0.706750 0.304053 0.255583
0.727282 0.306431 0.259091
0.747133 0.308665 0.262440
0.766389 0.310987 0.265738
0.784973 0.313225 0.268838
0.802963 0.315494 0.271799
0.820344 0.317519 0.274625
0.837352 0.319524 0.277227
0.853917 0.321510 0.279845
0.870221 0.323370 0.282296
0.886292 0.325371 0.284674
0.901773 0.327612 0.287118
0.915873 0.330596 0.290071
0.144832 0.247482 0.152851
0.168608 0.248539 0.144832
0.193992 0.250541 0.130218
0.217525 0.252772 0.124196
0.239577 0.255389 0.125761
0.261994 0.258205 0.130677
0.290693 0.260162 0.128362
0.320426 0.261934 0.125402
0.359893 0.264238 0.134512
0.395966 0.267361 0.148258
0.430061 0.271481 0.161772
0.462504 0.276666 0.174422
0.495080 0.282609 0.187374
0.528955 0.289363 0.200954
0.561105 0.296965 0.214550
0.591118 0.305306 0.228376
0.619402 0.313875 0.241808
0.641596 0.315168 0.245341
0.663130 0.316859 0.249135
0.684920 0.318306 0.252384
0.706294 0.320027 0.255791
0.726743 0.321789 0.259091
0.746789 0.323704 0.262491
0.766209 0.325767 0.265787
0.784774 0.327534 0.268887
0.802811 0.329340 0.271847
0.820344 0.331130 0.274673
0.837394 0.332904 0.277321
0.854042 0.334662 0.279985
0.870345 0.336406 0.282434
0.886456 0.338135 0.284811
0.902077 0.340211 0.287298
0.916256 0.343236 0.290337
0.161952 0.283280 0.175654
0.185139 0.284182 0.168107
0.209907 0.286192 0.151597
0.234545 0.288103 0.141730
0.257283 0.290354 0.139406
0.278881 0.293142 0.143083
0.300876 0.295954 0.146959
0.328193 0.297757 0.145443
0.356987 0.299267 0.142669
0.395116 0.300561 0.147560
0.430589 0.302316 0.161952
0.464484 0.305047 0.175326
0.496569 0.308904 0.188130
0.529661 0.314004 0.201372
0.562454 0.319574 0.214227
0.594108 0.325396 0.226756
0.623738 0.331673 0.239173
0.646241 0.331673 0.242198
0.668123 0.332187 0.245669
0.688896 0.333551 0.249672
0.708904 0.335467 0.254068
0.728312 0.337365 0.258271
0.747133 0.339519 0.262541
0.766096 0.341106 0.266035
0.784885 0.342680 0.269131
0.803050 0.344135 0.272136
0.820558 0.345420 0.274910
0.837648 0.346908 0.277650
0.854272 0.348281 0.280217
0.870676 0.349801 0.282709
0.886783 0.351413 0.285129
0.902442 0.353219 0.287568
0.916639 0.356076 0.290648
0.178328 0.317845 0.197503
0.201057 0.318894 0.190153
0.223865 0.321167 0.172598
0.251395 0.322196 0.160960
0.274316 0.324364 0.153999
0.295705 0.326819 0.155137
0.316098 0.329550 0.160143
0.337612 0.332179 0.163471
0.363985 0.333812 0.162042
0.392095 0.335251 0.159504
0.429246 0.335490 0.160325
0.463813 0.336204 0.174257
0.497878 0.337448 0.188732
0.530909 0.340261 0.201858
0.563290 0.344404 0.214614
0.594641 0.348739 0.227177
0.624959 0.353362 0.238890
0.648450 0.351833 0.241306
0.671436 0.350789 0.243969
0.693625 0.350182 0.246976
0.714539 0.350403 0.250580
0.733534 0.351888 0.255166
0.751896 0.353743 0.259704
0.769792 0.355634 0.264145
0.787088 0.357455 0.268447
0.803875 0.359418 0.272425
0.821093 0.360629 0.275432
0.838155 0.361624 0.278072
0.854878 0.362770 0.280681
0.871212 0.363858 0.283122
0.887314 0.365094 0.285537
0.902867 0.366732 0.288062
0.917162 0.369315 0.291135
0.194341 0.351436 0.218374
0.216279 0.352426 0.211364
0.237977 0.354793 0.193396
0.264716 0.355880 0.180640
0.290253 0.357188 0.172264
0.311230 0.359553 0.167070
0.331463 0.361835 0.171593
0.351327 0.364529 0.176388
0.372603 0.366970 0.179209
0.398319 0.368422 0.178006
0.425671 0.369756 0.175736
0.462316 0.369170 0.174010
0.496293 0.368956 0.187222
0.530972 0.369170 0.201511
0.564599 0.370764 0.215193
0.595704 0.373760 0.227478
0.625833 0.377072 0.239229
0.649422 0.374593 0.241585
0.672328 0.372609 0.244134
0.694755 0.371082 0.246976
0.716531 0.369969 0.249993
0.737043 0.369490 0.253491
0.756555 0.369703 0.257396
0.775169 0.370128 0.261431
0.792109 0.371820 0.265985
0.808383 0.373394 0.270251
0.824184 0.375060 0.274434
0.839735 0.376712 0.278259
0.855732 0.377892 0.281374
0.872036 0.378658 0.283808
0.888109 0.379522 0.286126
0.903736 0.380787 0.288599
0.916981 0.383743 0.292238
0.209716 0.384063 0.238438
0.231632 0.385008 0.232219
0.250265 0.387969 0.212476
0.278710 0.388433 0.198991
0.305411 0.389203 0.190153
0.326102 0.391346 0.184468
0.346065 0.393518 0.182917
0.365788 0.395767 0.187601
0.384982 0.398337 0.192003
0.406098 0.400633 0.194631
0.431521 0.402038 0.193469
0.458459 0.403290 0.191339
0.494663 0.401651 0.188130
0.528923 0.400682 0.199202
0.564034 0.400000 0.214227
0.597098 0.400341 0.227718
0.627099 0.402231 0.239511
0.650721 0.398680 0.241697
0.673711 0.395817 0.244244
0.696193 0.393417 0.247030
0.717930 0.391397 0.250099
0.739114 0.389818 0.253281
0.759518 0.388536 0.256517
0.778582 0.387969 0.260111
0.796615 0.388021 0.264095
0.813686 0.388278 0.268055
0.829372 0.389408 0.272329
0.844398 0.390736 0.276426
0.859255 0.392258 0.280403
0.873557 0.393819 0.284356
0.889167 0.394620 0.286938
0.904804 0.395468 0.289314
0.917463 0.398435 0.293293
0.225547 0.417648 0.259244
0.247286 0.418406 0.253859
0.265224 0.421227 0.234777
0.290217 0.422531 0.219255
0.320597 0.422159 0.209319
0.341303 0.424013 0.203032
0.361098 0.426080 0.198991
0.380373 0.428173 0.198638
0.399465 0.430382 0.202895
0.418511 0.432793 0.207181
0.438811 0.435046 0.210509
0.463999 0.436362 0.209319
0.490458 0.437540 0.207316
0.526502 0.434782 0.203032
0.562065 0.432793 0.211561
0.596235 0.430965 0.226032
0.628701 0.429663 0.239737
0.652371 0.424382 0.241864
0.675431 0.420525 0.244409
0.697935 0.417125 0.247247
0.719787 0.414251 0.250366
0.740971 0.411827 0.253544
0.761444 0.409720 0.256724
0.781295 0.407890 0.259908
0.800434 0.406395 0.263094
0.818041 0.405544 0.266628
0.834306 0.405594 0.270639
0.849622 0.405895 0.274720
0.864441 0.406595 0.278634
0.876458 0.409375 0.284036
0.890607 0.410604 0.287748
0.906050 0.410849 0.290248
0.918687 0.413430 0.294168
0.241195 0.450889 0.279566
0.262401 0.451580 0.274768
0.280681 0.454025 0.257499
0.303680 0.455598 0.241641
0.333037 0.455386 0.230396
0.355673 0.456402 0.222058
0.375715 0.458254 0.215834
0.395126 0.460134 0.211823
0.413525 0.462122 0.213775
0.432298 0.464218 0.217679
0.451078 0.466619 0.221872
0.470591 0.468918 0.225790
0.495739 0.470000 0.224452
0.522094 0.471196 0.222675
0.559298 0.467550 0.216982
0.594361 0.464463 0.222552
0.627309 0.461627 0.237073
0.653559 0.453811 0.241027
0.677777 0.447448 0.244464
0.700094 0.442526 0.247464
0.721958 0.438548 0.250526
0.743133 0.435148 0.253754
0.763646 0.432166 0.256983
0.783452 0.429570 0.260264
0.802635 0.427328 0.263495
0.820939 0.425256 0.266529
0.838690 0.423409 0.269521
0.853542 0.423360 0.273958
0.868413 0.423409 0.277978
0.881094 0.424869 0.283122
0.893532 0.426656 0.287838
0.907712 0.427424 0.291135
0.919288 0.429902 0.295865
0.256310 0.483865 0.299650
0.277166 0.484499 0.294996
0.295549 0.486586 0.279706
0.316120 0.488462 0.263294
0.343755 0.488540 0.251378
0.368808 0.488851 0.241808
0.389657 0.490092 0.234777
0.408933 0.491866 0.228793
0.427702 0.493741 0.225668
0.445930 0.495604 0.228376
0.464367 0.497678 0.231867
0.483031 0.499923 0.235813
0.501770 0.502222 0.240467
0.526988 0.503327 0.239173
0.554119 0.504428 0.237187
0.591118 0.499699 0.230632
0.625489 0.495528 0.233095
0.652295 0.486665 0.237244
0.678459 0.478048 0.242420
0.702922 0.470632 0.247247
0.724711 0.465130 0.250526
0.745863 0.460243 0.253859
0.766206 0.456009 0.257292
0.786110 0.452647 0.260721
0.805244 0.449555 0.263995
0.823547 0.446699 0.267121
0.841179 0.444181 0.270154
0.855630 0.443618 0.275148
0.871708 0.442061 0.278213
0.884262 0.442865 0.283351
0.895578 0.444697 0.289046
0.909229 0.445070 0.292546
0.920984 0.446884 0.296903
0.271316 0.516779 0.319393
0.291627 0.517290 0.314944
0.309966 0.519144 0.301223
0.329399 0.520914 0.285764
0.354462 0.521381 0.272809
0.379554 0.521632 0.262239
0.403391 0.522027 0.253281
0.422326 0.523493 0.247464
0.441115 0.525163 0.242476
0.459663 0.526929 0.238834
0.477579 0.528754 0.242087
0.495865 0.530740 0.245505
0.514368 0.532884 0.249028
0.533293 0.535217 0.253859
0.558784 0.536274 0.252965
0.585544 0.537259 0.251059
0.621765 0.531745 0.243693
0.650747 0.521884 0.233269
0.677095 0.512356 0.237358
0.702805 0.503587 0.243583
0.727466 0.495184 0.249618
0.749370 0.488825 0.253754
0.769809 0.483342 0.257447
0.789598 0.478627 0.261178
0.808502 0.474120 0.264495
0.826426 0.470935 0.268349
0.844542 0.467350 0.270930
0.858048 0.466679 0.277133
0.872727 0.465378 0.281282
0.885996 0.464838 0.285900
0.898189 0.465288 0.290914
0.910164 0.466187 0.295561
0.922118 0.466992 0.299650
0.285900 0.549236 0.338507
0.305562 0.549710 0.334416
0.323911 0.551229 0.322290
0.342338 0.553041 0.307623
0.363683 0.554243 0.292766
0.389674 0.554043 0.281697
0.415725 0.553776 0.272281
0.435218 0.554875 0.266035
0.454032 0.556267 0.260111
0.472613 0.557851 0.254592
0.490683 0.559556 0.252807
0.508623 0.561316 0.255270
0.526659 0.563195 0.258578
0.545332 0.565318 0.261684
0.564569 0.567617 0.266776
0.589613 0.568443 0.265985
0.615745 0.569329 0.264095
0.646035 0.559523 0.249350
0.675578 0.550150 0.235065
0.701912 0.541013 0.236730
0.727058 0.532465 0.243914
0.751573 0.524119 0.250899
0.774640 0.516804 0.257138
0.794856 0.511158 0.261279
0.814059 0.506223 0.264993
0.831273 0.502326 0.269959
0.848337 0.498530 0.274101
0.862286 0.496506 0.279752
0.874539 0.495925 0.286938
0.887247 0.495342 0.292194
0.899321 0.494967 0.297377
0.911413 0.495175 0.302027
0.923526 0.495259 0.305759
0.294124 0.576294 0.351536
0.313141 0.576712 0.347781
0.331084 0.577993 0.336857
0.348840 0.579714 0.323145
0.366381 0.581647 0.305966
0.391328 0.581678 0.294691
0.419455 0.580793 0.286081
0.442022 0.581046 0.277274
0.461267 0.582151 0.270978
0.479844 0.583535 0.264843
0.498427 0.585037 0.258116
0.516336 0.586687 0.256621
0.533913 0.588482 0.258988
0.552040 0.590328 0.262541
0.570917 0.592528 0.265390
0.590068 0.594621 0.270348
0.614133 0.595647 0.270687
0.639999 0.596340 0.269034
0.669671 0.587307 0.255531
0.699431 0.578377 0.239849
0.726194 0.569693 0.236272
0.750892 0.561585 0.243528
0.774726 0.553620 0.251165
0.797873 0.545992 0.258527
0.819094 0.539173 0.264495
0.836502 0.534801 0.270494
0.850232 0.532211 0.279520
0.864408 0.529595 0.285900
0.876620 0.528143 0.293293
0.888653 0.526875 0.299479
0.900725 0.525910 0.304382
0.912699 0.525058 0.309310
0.924811 0.524282 0.313094
0.302618 0.603396 0.364642
0.320898 0.603701 0.361263
0.338454 0.604798 0.351467
0.355804 0.606345 0.338909
0.370722 0.608635 0.321041
0.392824 0.609325 0.308036
0.421213 0.608185 0.300417
0.446901 0.607613 0.290603
0.468485 0.608034 0.282342
0.486836 0.609235 0.276379
0.505264 0.610521 0.269862
0.523824 0.612010 0.263044
0.541679 0.613639 0.260671
0.559217 0.615406 0.263144
0.577510 0.617251 0.267023
0.596235 0.619347 0.269668
0.615308 0.621428 0.274149
0.638262 0.622493 0.275622
0.664018 0.622981 0.273958
0.692732 0.614848 0.262138
0.722326 0.606436 0.247085
0.749503 0.598344 0.237813
0.773978 0.590603 0.242309
0.797085 0.583110 0.250473
0.819438 0.575853 0.258373
0.839906 0.569197 0.267220
0.853146 0.566226 0.282434
0.866146 0.563538 0.292546
0.878336 0.561496 0.300332
0.890349 0.559759 0.307293
0.902342 0.557939 0.312568
0.914335 0.556754 0.317575
0.926289 0.555457 0.321432
0.311189 0.630147 0.377585
0.328735 0.630467 0.374548
0.345845 0.631338 0.365738
0.363116 0.632582 0.354759
0.378289 0.634569 0.338982
0.396305 0.636086 0.323532
0.422123 0.635514 0.314222
0.449161 0.634511 0.305592
0.474013 0.634138 0.295561
0.493729 0.634798 0.288196
0.511949 0.635915 0.282020
0.530425 0.637141 0.275148
0.548763 0.638590 0.268545
0.566659 0.640145 0.265341
0.584415 0.642001 0.267859
0.602587 0.643846 0.271654
0.621202 0.645847 0.274244
0.640209 0.647836 0.278259
0.662036 0.649046 0.280820
0.687625 0.649293 0.279240
0.715431 0.642085 0.268985
0.744389 0.634368 0.255322
0.771706 0.626723 0.241808
0.796295 0.619518 0.240523
0.818648 0.612602 0.249082
0.839946 0.605933 0.257911
0.855117 0.601456 0.277368
0.868111 0.598109 0.294865
0.880300 0.595410 0.307788
0.892293 0.593114 0.315625
0.904246 0.591031 0.321315
0.916180 0.589134 0.326459
0.928055 0.587359 0.330751
0.319590 0.656473 0.390135
0.336567 0.656723 0.387470
0.353255 0.657501 0.379709
0.370227 0.658525 0.369948
0.385715 0.660207 0.356202
0.402020 0.661907 0.341092
0.423795 0.662235 0.328671
0.449855 0.661442 0.319944
0.476409 0.660454 0.310985
0.499107 0.660371 0.301435
0.518521 0.661030 0.294211
0.536657 0.662098 0.287658
0.555096 0.663381 0.280356
0.573709 0.664740 0.272665
0.591668 0.666444 0.270687
0.609381 0.668300 0.273049
0.627415 0.670120 0.276332
0.645906 0.672009 0.279100
0.664777 0.673887 0.282709
0.685512 0.675204 0.286352
0.710832 0.675362 0.284720
0.737613 0.668970 0.276095
0.765529 0.662098 0.264145
0.792614 0.654996 0.250473
0.817694 0.648361 0.240130
0.839569 0.641964 0.246868
0.856060 0.637182 0.267318
0.870360 0.633255 0.285990
0.882372 0.630186 0.305175
0.894364 0.627390 0.318683
0.906356 0.624785 0.329088
0.918309 0.622498 0.335861
0.930417 0.620350 0.340294
0.327911 0.682315 0.402331
0.344241 0.682501 0.399889
0.360459 0.683193 0.393109
0.377151 0.684069 0.384315
0.392796 0.685419 0.372484
0.408249 0.687053 0.358421
0.425871 0.688338 0.343256
0.449525 0.688102 0.333039
0.477005 0.686816 0.325846
0.502090 0.686079 0.316263
0.524579 0.686000 0.306589
0.542909 0.686895 0.300076
0.561056 0.687971 0.293205
0.579602 0.689123 0.285583
0.598790 0.690608 0.276379
0.616407 0.692321 0.275953
0.634005 0.694102 0.278306
0.651889 0.695899 0.281374
0.670319 0.697712 0.284173
0.688921 0.699491 0.287433
0.708546 0.700983 0.292018
0.733603 0.701059 0.290515
0.759474 0.695463 0.283214
0.786067 0.689488 0.273240
0.812476 0.683087 0.260975
0.837102 0.677021 0.249028
0.856628 0.671917 0.256983
0.872694 0.667540 0.275053
0.884802 0.664571 0.297851
0.896754 0.661773 0.316064
0.908668 0.659007 0.329202
0.920582 0.656563 0.339784
0.933018 0.653955 0.346932
0.336156 0.707671 0.414097
0.351841 0.707774 0.411943
0.367688 0.708388 0.405916
0.383971 0.709154 0.398171
0.399663 0.710249 0.387839
0.415166 0.711645 0.375670
0.430045 0.713488 0.359473
0.448531 0.714469 0.345332
0.476472 0.712959 0.339347
0.503049 0.711796 0.331390
0.528382 0.711011 0.320963
0.548512 0.711417 0.312771
0.567044 0.712201 0.305800
0.585309 0.713261 0.298624
0.604269 0.714595 0.289848
0.623057 0.716073 0.282250
0.640724 0.717744 0.281420
0.658170 0.719482 0.283899
0.676019 0.721211 0.286893
0.694250 0.722956 0.289537
0.712726 0.724692 0.292458
0.731338 0.726299 0.297851
0.755883 0.726299 0.296471
0.780884 0.721432 0.290337
0.805894 0.716373 0.282617
0.831394 0.710706 0.271944
0.852909 0.705771 0.272617
0.872539 0.701311 0.273767
0.887372 0.697716 0.289314
0.899286 0.695095 0.312649
0.911238 0.692613 0.327186
0.923113 0.690140 0.341345
0.935527 0.687702 0.350068
0.344081 0.732420 0.425390
0.359303 0.732494 0.423530
0.374798 0.733012 0.418221
0.390625 0.733627 0.411403
0.406329 0.734610 0.402302
0.421847 0.735786 0.391504
0.436092 0.737590 0.376725
0.450185 0.739555 0.360015
0.476000 0.738586 0.352545
0.502839 0.737298 0.345261
0.528983 0.736201 0.336709
0.552230 0.735810 0.326536
0.572682 0.736128 0.318011
0.590841 0.736982 0.311270
0.609635 0.738174 0.303039
0.628697 0.739459 0.293731
0.647215 0.740956 0.287343
0.664682 0.742591 0.287163
0.682087 0.744290 0.289626
0.699739 0.746077 0.292546
0.717790 0.747665 0.295040
0.736106 0.749317 0.297593
0.754357 0.750845 0.303039
0.777710 0.750915 0.302450
0.802001 0.746836 0.297119
0.825256 0.742663 0.291489
0.847437 0.738174 0.294168
0.867287 0.733996 0.299351
0.883696 0.730663 0.310374
0.899170 0.727648 0.319786
0.913581 0.724809 0.328101
0.925724 0.722658 0.342789
0.938173 0.720518 0.352580
0.351745 0.756547 0.436123
0.366496 0.756619 0.434509
0.381661 0.757000 0.429967
0.397123 0.757571 0.423914
0.412740 0.758332 0.415927
0.428145 0.759351 0.406408
0.442923 0.760815 0.393772
0.457673 0.762438 0.379393
0.477662 0.762931 0.367126
0.501970 0.762297 0.358183
0.528754 0.760933 0.351048
0.554238 0.759989 0.340983
0.577300 0.759611 0.330713
0.596180 0.760296 0.323339
0.614715 0.761286 0.315744
0.633747 0.762368 0.306921
0.652807 0.763703 0.297205
0.671029 0.765244 0.291974
0.688219 0.766870 0.292986
0.705449 0.768536 0.295431
0.723016 0.770171 0.298280
0.740858 0.771799 0.300544
0.758985 0.773352 0.302913
0.776945 0.774785 0.308242
0.798966 0.775012 0.308407
0.822431 0.771456 0.303921
0.842662 0.768167 0.311717
0.861868 0.764754 0.320610
0.879123 0.761545 0.334119
0.895201 0.758782 0.343830
0.910254 0.756428 0.351013
0.925379 0.753962 0.355962
0.940594 0.751672 0.357945
0.358965 0.779926 0.446268
0.373541 0.779972 0.444830
0.388326 0.780296 0.441051
0.403508 0.780757 0.435674
0.419108 0.781402 0.428701
0.434533 0.782230 0.420305
0.449661 0.783445 0.409517
0.464879 0.784771 0.396920
0.481730 0.785910 0.383162
0.501940 0.786251 0.371186
0.528239 0.784999 0.364376
0.554594 0.783743 0.356236
0.579467 0.782941 0.344618
0.600950 0.783033 0.334973
0.619595 0.783834 0.327606
0.638480 0.784839 0.319275
0.657493 0.785978 0.310088
0.676533 0.787272 0.300034
0.694180 0.788810 0.297291
0.711210 0.790409 0.298709
0.728305 0.792068 0.301266
0.745752 0.793653 0.304005
0.763448 0.795165 0.306091
0.781230 0.796649 0.308324
0.798902 0.797929 0.313457
0.819670 0.798282 0.314583
0.840161 0.795298 0.327110
0.858931 0.792493 0.340185
0.875194 0.790229 0.353965
0.891567 0.787748 0.365638
0.907076 0.785705 0.373711
0.922322 0.783743 0.379803
0.938096 0.781862 0.380843
0.366565 0.802284 0.455647
0.381692 0.802126 0.454548
0.397783 0.802059 0.451835
0.413877 0.802216 0.447291
0.431721 0.802126 0.442298
0.448348 0.802508 0.435515
0.465985 0.802778 0.428566
0.481889 0.803674 0.418750
0.498005 0.804636 0.408628
0.515704 0.805417 0.397665
0.537306 0.805194 0.389157
0.559326 0.804971 0.379171
0.581515 0.805149 0.363208
0.603171 0.805305 0.348980
0.624135 0.805617 0.338434
0.642906 0.806552 0.330676
0.661810 0.807572 0.321939
0.680812 0.808745 0.312326
0.699518 0.810157 0.303628
0.716746 0.811672 0.302745
0.733654 0.813226 0.304549
0.750627 0.814817 0.307293
0.767882 0.816292 0.309883
0.785426 0.817720 0.311677
0.802910 0.819120 0.314141
0.820107 0.820258 0.319865
